X:10130024
T:Rond de loudeac J1.2 Skelton 2
O:frm John Skelton; trad Breton
G:Lark16
M:4/4
A:Brittany
N: Drone E
K:Em
L:1/8
Q:1/4=180
| EG FE DE FD | EG FE D2E2 | EG FE DE FD | EG FE D2E2 ||
FG AG FE FD | FG AG F4 | FG AG FE FD | FG AG F4 ||
|:EG BG DF AF | EF GA BA GF | EG BG DF AF | EF GF E4 :|

